X: 630
T: Da kuqi
%%abc-version 2.0
%%abcx-abcm2ps-target-version 5.9.1 (29 Sep 2008)
%%abc-creator hum2abc beta
%%abcx-conversion-date 2013/10/02 07:52:30
%%abc-edited-by Helmut Schaffrath
%%humdrum-veritas 1460249929
%%humdrum-veritas-data 1649378932
%%continueall 1
%%barnumbers 0
L: 1/16
M: 4/4
K: G
d2> d2 d2 d2 e2 d B2< d2 B [I:setbarnb 1]| 
d8d2 e2 d2 e e | 
d e d B A B E GA8 | 
A2 A B d2 d2 d2 d2 e2 B2 | 
A B A G G2 F2E8 | 
G2 F E G2 B4<A4B A | 
G2 F E D2 E GD8 | 
G2 F E G2 B4<A4B A | 
G2 F E D2 E GD8 |]  



